public/assets/techs/linux.svg

<svg width="20" height="20" viewBox="0 0 20 20" fill="none" xmlns="http://www.w3.org/2000/svg">
<g clip-path="url(#clip0_310_43)">
<path fill-rule="evenodd" clip-rule="evenodd" d="M16.6793 13.9182C17.11 14.1028 17.2887 14.4622 17.3687 14.8768C17.4547 15.3195 17.5867 15.7335 17.9213 16.0575C17.966 16.1002 17.998 16.1575 18.0327 16.2108C18.4447 16.8368 18.3507 17.2788 17.706 17.6522C17.4173 17.8202 17.112 17.9595 16.814 18.1095C16.3647 18.3348 15.9707 18.6235 15.6373 19.0082C15.2133 19.4948 14.6953 19.8455 14.0427 19.9675C13.262 20.1135 12.576 19.7722 12.2427 19.0428C12.1713 18.8868 12.0907 18.8395 11.9227 18.8308C11.5087 18.8062 11.0947 18.7642 10.684 18.7035C9.96066 18.5968 9.266 18.7748 8.56133 18.8782C8.28266 18.9188 8.08866 19.0108 7.904 19.2482C7.54 19.7155 6.98933 19.8355 6.43466 19.7622C5.98466 19.7022 5.52266 19.5888 5.11466 19.3962C4.52 19.1175 3.90466 18.9888 3.26466 18.9195C3.02266 18.8935 2.77933 18.8608 2.542 18.8102C1.9 18.6708 1.59533 18.2542 1.766 17.6242C1.90666 17.1048 1.926 16.6102 1.85933 16.0802C1.764 15.3235 1.99333 14.9682 2.74466 14.7548C3.346 14.5842 3.57466 14.0635 3.94266 13.6702C3.97133 13.6388 3.966 13.5662 3.96133 13.5142C3.85666 12.4868 4.16333 11.5495 4.594 10.6428C5.066 9.64951 5.69866 8.75951 6.38466 7.90418C7.13066 6.97418 7.43266 5.90418 7.35666 4.71951C7.3 3.82751 7.224 2.93418 7.43866 2.04885C7.71866 0.888847 8.516 0.152847 9.70133 0.0408474C10.2073 -0.00715258 10.7387 -0.0284859 11.2313 0.0708474C12.3827 0.301514 12.928 1.14618 13.1853 2.21951C13.3873 3.06218 13.4133 3.92151 13.376 4.77951C13.3393 5.60751 13.53 6.35618 14.0287 7.01885C14.3873 7.49551 14.7807 7.94618 15.1167 8.43818C15.538 9.05685 15.966 9.67818 16.3 10.3448C16.856 11.4535 17.068 12.5602 16.6793 13.9182ZM7.55333 16.4222C7.84333 16.9102 8.17466 17.3048 8.724 17.4935C9.94866 17.9155 11.064 17.6602 12.1213 17.0002C12.2393 16.9275 12.3613 16.7788 12.3853 16.6488C12.4973 16.0202 12.5767 15.3848 12.6667 14.7502C12.7507 14.1548 12.872 13.5808 13.482 13.2708C13.5347 13.2435 13.5607 13.1468 13.5813 13.0782C13.6933 12.7122 13.8733 12.5362 14.242 12.5935C14.978 12.7082 15.7087 12.8722 15.96 13.7695C16.1107 13.5195 16.0347 13.3048 15.8773 13.1442C15.6987 12.9608 15.4907 12.7848 15.262 12.6768C14.9713 12.5415 14.868 12.4088 14.8947 12.0495C14.986 10.8215 14.414 9.84485 13.594 8.98751C13.5767 8.96951 13.5447 8.96418 13.5193 8.95351C14.3527 9.93951 14.904 10.9882 14.5147 12.3228C14.0773 12.2902 14.0713 12.2915 14.032 12.1002C13.868 11.3035 13.5433 10.5702 13.186 9.84485C12.8893 9.23885 12.626 8.61351 12.3787 7.98618C12.162 7.43685 11.988 6.86751 11.8 6.32218C11.5947 6.45751 11.402 6.60085 11.1947 6.71951C10.932 6.86951 10.654 6.99018 10.3913 7.14018C9.72666 7.51751 9.18666 7.46685 8.60533 6.96685C8.446 6.82885 8.26933 6.71151 8.064 6.55818C7.96466 7.61018 7.61066 8.51751 7.21466 9.41285C7.03533 9.81751 6.85333 10.2202 6.666 10.6202C6.31133 11.3782 6.12133 12.1775 6.048 13.0682C5.72866 12.6062 5.64 12.1502 5.67133 11.6648C5.71133 11.0375 5.93866 10.4695 6.22866 9.92151C6.33866 9.71285 6.436 9.49951 6.54 9.28685C6.52 9.27751 6.49933 9.26885 6.47933 9.25951C6.02 9.98485 5.60466 10.7335 5.438 11.5875C5.22066 12.6995 5.59 13.4315 6.55733 14.0055C7.16466 14.3648 7.71933 14.8048 8.046 15.4588C8.30933 15.9822 8.13933 16.3075 7.55333 16.4222ZM6.27466 19.1422C6.83666 19.1002 7.23933 19.0248 7.47 18.6135C7.70066 18.2035 7.624 17.8048 7.37666 17.4315C7.22066 17.1948 7.03866 16.9742 6.88133 16.7375C6.58666 16.2922 6.298 15.8415 6.01333 15.3902C5.808 15.0635 5.64066 14.7102 5.40866 14.4055C5.064 13.9522 4.468 13.7455 4.014 14.4535C3.76733 14.8388 3.44066 15.0822 3.00066 15.2155C2.54333 15.3535 2.41866 15.6242 2.45666 16.1062C2.48466 16.4708 2.53933 16.8588 2.45133 17.2028C2.248 17.9982 2.38333 18.2522 3.19866 18.3355C3.93866 18.4122 4.66066 18.5295 5.34 18.8782C5.66133 19.0422 6.04666 19.0808 6.27466 19.1422ZM13.7933 13.9728C13.6847 14.1108 13.5467 14.2282 13.4873 14.3775C13.3933 14.6095 13.3167 14.8622 13.2967 15.1095C13.2327 15.8802 13.158 16.6448 12.8967 17.3788C12.8433 17.5288 12.8127 17.6862 12.784 17.8422C12.6947 18.3215 12.742 18.7682 13.15 19.1002C13.552 19.4295 14.0127 19.4402 14.452 19.2275C14.7747 19.0728 15.1013 18.8695 15.342 18.6088C15.7687 18.1468 16.2647 17.8122 16.8253 17.5502C17.0407 17.4502 17.2533 17.3368 17.4493 17.2035C17.6753 17.0502 17.7193 16.8688 17.5993 16.6215C17.52 16.4602 17.422 16.2988 17.3007 16.1655C17.0887 15.9322 16.9787 15.6602 16.9133 15.3608C16.872 15.1748 16.8287 14.9855 16.7507 14.8142C16.5653 14.4002 16.03 14.3088 15.6653 14.5748C15.4333 14.7442 15.1633 14.8808 14.8907 14.9722C14.544 15.0895 14.2387 14.9528 14.0593 14.6348C13.952 14.4455 13.8933 14.2295 13.7933 13.9728ZM9.60533 6.98618C9.70866 6.95885 9.89266 6.94085 10.05 6.86485C10.458 6.67351 10.8553 6.45885 11.254 6.24751C11.3287 6.20818 11.3967 6.15351 11.4607 6.09751C11.8887 5.71618 11.82 5.29285 11.298 5.06218C10.924 4.89818 10.552 4.73151 10.182 4.55818C9.69533 4.33285 9.22466 4.32018 8.78266 4.65818C8.498 4.87551 8.22 5.10218 7.94266 5.32885C7.77666 5.46285 7.73733 5.63351 7.822 5.83285C7.956 6.14685 9.03066 6.93151 9.378 6.96685C9.428 6.97351 9.47866 6.97618 9.60533 6.98618ZM11.0433 4.74018C11.142 4.78285 11.2193 4.80951 11.2873 4.84951C11.512 4.98351 11.6633 4.89351 11.7047 4.67085C11.7653 4.33885 11.8467 3.99218 11.8033 3.66551C11.732 3.12018 11.324 2.74885 10.898 2.72685C10.386 2.70218 9.96 3.12551 9.86733 3.74751C9.796 4.22551 9.80866 4.24351 10.2747 4.35285C10.3247 4.15351 10.344 3.93885 10.4367 3.76285C10.4967 3.64818 10.6653 3.52085 10.7813 3.52485C10.8973 3.52751 11.054 3.66551 11.1133 3.78418C11.2693 4.09485 11.2167 4.41485 11.0433 4.74018ZM14.1687 13.6395C14.1847 13.9062 14.2413 14.1995 14.5313 14.3362C14.8067 14.4675 15.054 14.3208 15.278 14.1575C15.3333 14.1168 15.3847 14.0675 15.4293 14.0155C15.5887 13.8322 15.5867 13.6128 15.3867 13.4748C15.2007 13.3462 14.99 13.2368 14.7753 13.1648C14.3693 13.0302 14.166 13.1915 14.1687 13.6395ZM8.77266 4.43151C8.906 4.32618 9.11333 4.24285 9.12533 4.13618C9.17066 3.74018 9.068 3.36285 8.76066 3.07751C8.492 2.82885 8.17133 2.86685 7.93866 3.15818C7.56466 3.62418 7.62533 4.52285 8.06933 4.96018C8.14466 4.90418 8.222 4.84685 8.30533 4.78418C8.08533 4.54218 8.04133 4.26485 8.10666 3.98485C8.13466 3.86618 8.268 3.77418 8.35333 3.66951C8.45 3.75151 8.57933 3.81685 8.634 3.92085C8.70666 4.05951 8.72133 4.22751 8.77266 4.43151Z" fill="#EEEEEE"/>
<path fill-rule="evenodd" clip-rule="evenodd" d="M8.526 7.13066C8.58133 7.17733 8.63733 7.222 8.69066 7.27133C9.216 7.758 9.62733 7.81533 10.2607 7.48066C10.4433 7.384 10.6187 7.272 10.8013 7.17333C10.8687 7.138 10.9467 7.12133 11.03 7.12666C10.5093 7.4 10.062 7.86 9.40133 7.76866C9.00666 7.714 8.736 7.46133 8.478 7.19466C8.494 7.174 8.51 7.15266 8.526 7.13066Z" fill="#EEEEEE"/>
</g>
<defs>
<clipPath id="clip0_310_43">
<rect width="20" height="20" fill="white"/>
</clipPath>
</defs>
</svg>

<svg xmlns="http://www.w3.org/2000/svg" width="20" height="20" fill="none" xmlns:v="https://vecta.io/nano"><g clip-path="url(#A)" fill-rule="evenodd" fill="#fcd22f"><path d="M16.679 13.918c.431.185.609.544.689.959.086.443.218.857.553 1.181.045.043.077.1.111.153.412.626.318 1.068-.327 1.441-.289.168-.594.307-.892.457-.449.225-.843.514-1.177.899-.424.487-.942.837-1.595.959a1.57 1.57 0 0 1-1.8-.925.31.31 0 0 0-.32-.212l-1.239-.127c-.723-.107-1.418.071-2.123.175a.91.91 0 0 0-.657.37c-.364.467-.915.587-1.469.514-.45-.06-.912-.173-1.32-.366-.595-.279-1.21-.407-1.85-.477l-.723-.109c-.642-.139-.947-.556-.776-1.186a3.88 3.88 0 0 0 .093-1.544c-.095-.757.134-1.112.885-1.325.601-.171.83-.691 1.198-1.085.029-.031.023-.104.019-.156-.105-1.027.202-1.965.633-2.871.472-.993 1.105-1.883 1.791-2.739.746-.93 1.048-2 .972-3.185-.057-.892-.133-1.785.082-2.671C7.719.889 8.516.153 9.701.041c.506-.048 1.037-.069 1.53.03 1.151.231 1.697 1.075 1.954 2.149.202.843.228 1.702.191 2.56-.037.828.154 1.577.653 2.239l1.088 1.419 1.183 1.907c.556 1.109.768 2.215.379 3.573zm-9.126 2.504c.29.488.621.883 1.171 1.071 1.225.422 2.34.167 3.397-.493.118-.073.24-.221.264-.351l.281-1.899c.084-.595.205-1.169.815-1.479.053-.027.079-.124.099-.193.112-.366.292-.542.661-.485.736.115 1.467.279 1.718 1.176.151-.25.075-.465-.083-.625a2.22 2.22 0 0 0-.615-.467c-.291-.135-.394-.268-.367-.627.091-1.228-.481-2.205-1.301-3.062-.017-.018-.049-.023-.075-.034.833.986 1.385 2.035.995 3.369-.437-.033-.443-.031-.483-.223-.164-.797-.489-1.53-.846-2.255l-.807-1.859-.579-1.664-.605.397-.803.421c-.665.377-1.205.327-1.786-.173-.159-.138-.336-.255-.541-.409-.099 1.052-.453 1.959-.849 2.855l-.549 1.207c-.355.758-.545 1.557-.618 2.448-.319-.462-.408-.918-.377-1.403.04-.627.267-1.195.557-1.743l.311-.635-.061-.027c-.459.725-.875 1.474-1.041 2.328-.217 1.112.152 1.844 1.119 2.418.607.359 1.162.799 1.489 1.453.263.523.093.849-.493.963zm-1.279 2.72c.562-.042.965-.117 1.195-.529s.154-.809-.093-1.182l-.495-.694-.868-1.347-.605-.985c-.345-.453-.941-.66-1.395.048-.247.385-.573.629-1.013.762-.457.138-.582.409-.544.891.028.365.083.753-.005 1.097-.203.795-.068 1.049.747 1.133.74.077 1.462.194 2.141.543.321.164.707.203.935.264zm7.519-5.169c-.109.138-.247.255-.306.405-.094.232-.171.485-.191.732-.064.771-.139 1.535-.4 2.269-.053.15-.084.307-.113.463-.089.479-.042.926.366 1.258.402.329.863.34 1.302.127.323-.155.649-.358.89-.619.427-.462.923-.797 1.483-1.059.215-.1.428-.213.624-.347.226-.153.27-.335.15-.582a1.97 1.97 0 0 0-.299-.456c-.212-.233-.322-.505-.387-.805-.041-.186-.085-.375-.163-.547-.185-.414-.721-.505-1.085-.239a2.89 2.89 0 0 1-.775.397c-.347.117-.652-.019-.831-.337-.107-.189-.166-.405-.266-.662zM9.605 6.986c.103-.027.287-.045.445-.121l1.204-.617c.075-.039.143-.094.207-.15.428-.381.359-.805-.163-1.035l-1.116-.504c-.487-.225-.957-.238-1.399.1l-.84.671c-.166.134-.205.305-.121.504.134.314 1.209 1.099 1.556 1.134l.227.019zm1.438-2.246l.244.109c.225.134.376.044.417-.179.061-.332.142-.679.099-1.005-.071-.545-.479-.917-.905-.939-.512-.025-.938.399-1.031 1.021-.071.478-.059.496.407.605.05-.199.069-.414.162-.59.06-.115.229-.242.345-.238s.273.141.332.259c.156.311.103.631-.07.956zm3.125 8.899c.016.267.073.56.363.697.275.131.523-.015.747-.179.055-.041.107-.09.151-.142.159-.183.157-.403-.043-.541a2.48 2.48 0 0 0-.611-.31c-.406-.135-.609.027-.607.475zM8.773 4.432c.133-.105.341-.189.353-.295.045-.396-.057-.773-.365-1.059-.269-.249-.589-.211-.822.081-.374.466-.313 1.365.131 1.802l.236-.176c-.22-.242-.264-.519-.199-.799.028-.119.161-.211.247-.315.097.082.226.147.281.251.073.139.087.307.139.511z"/><path d="M8.526 7.131l.165.141c.525.487.937.544 1.57.209l.541-.307a.43.43 0 0 1 .229-.047c-.521.273-.968.733-1.629.642-.395-.055-.665-.307-.923-.574l.048-.064z"/></g><defs><clipPath id="A"><path fill="#fff" d="M0 0h20v20H0z"/></clipPath></defs></svg>
